X:19081
T:Xiraldilla (CT 424)
R:Xiraldilla
C:Tradicional
S:Música Tradicional Asturiana, (C) Tello & Tito. Asturies, 2001.
S:http://pagina.de/MusTradAst <telloytito@asturies.org>
N:Xiraldilla, transcrita en Riusecu, ayuntamiento de Sobrecobiu.
N:Es variante de la señalada con el númeru CT 421.
O:Riusecu (Sobrescobiu)
A:Asturies
Z:Cancioneru de Torner 424
M:2/4
L:1/8
Q:1/4=160
W:¿Para qué y para cuándo
W:quieres el dengue?
W:Para cuando me ponga
W:la saya verde.
W:
W:La molinera,
W:dale con aire,
W:con aire a la rueda;
W:dale con aire,
W:con aire,
W:que muela.
K:Cm
G
|cc ce|g2 fe|g2 fe|d2 z G|
cc ce|g2 fe|g2 fe|d2 z =B|
|c2 BA|G2 zG|
c2 ed|B2 dc|A2 cB|G2 zG|
c2 ed|B2 dc|A2 cB|G2 ||


